X: 0
T: The Rambling Pitchfork
C: Trad
O: Ireland
R: jig
M: 6/8
L: 1/8
K: Dmaj
E|:F3 AFF|dFF AFD|GFG ABc|ded cAG|
F3 AFF|dFF AFD|GFG BGB|1AFD D2E:|2 AFD DBc||
|:d3 fed|ecA gfe|d3 fed|1faf gfe|
d3 fed|ecA ecA|GFG BGB|AFD DBc:|
|2 faf gfg | agf bag|fed dcB|ABd BAF|EFA B2c||